X: 24526
T: Lucy Farr's
R: barndance
M: 4/4
K: Gmajor
(3DEF|G2 G2 G2 G2|GBdB G2 G2|A2 A2 A2 A2|cdec A2 A2|
BcdB G2 G2|ABcA F2 F2|GABG FAdF|G2 B2 G2|
|:GA|BcdB G2 G2|ABcA F2 F2|GABG FAdF|G2 B2 G2:|

